X:1
T:Let the Holy Ghost Come In
T:Charles E. Rowley
T:Let the Holy Ghost Come In
T:Public Domain
T:Public Domain
C:Charles E. Rowley
Z:Public Domain
%%score ( 1 2 ) ( 3 4 )
L:1/8
M:4/4
K:C
V:1 treble 
V:2 treble 
V:3 bass 
V:4 bass 
V:1
 [CE]>[DF] [EG]>[FA] [EG]2 [Ec]2 | [FB]>[Fc] [Fd]>[Fc] [FA]4 | [B,D]>[CE] [DF]>[EG] [FB]2 [FA]2 | %3
w: 1.~Would you be re- deemed from|ev- ’ry in- bred sin,|Have the Ho- ly Spir- it|
w: 2.~Would you have the Spir- it|in your heart to cheer?|Would you be re- lieved from|
w: 3.~Do you want the “fire of|God” to fill your soul,|Burn up all the dross, and|
w: 4.~Do you want the “pow’r” to|make you true and brave,|So that you can res- cue|
 [EG]>[FA] [EG]>[DF] [CE]4 | [CE]>[DF] [EG]>[FA] [EG]2 [Ec]2 | [Ec]>[Fd] [Ge]>[Ec] [FA]4 | %6
w: con- stant- ly with- in?|Make the con- se- cra- tion,|trust in God, and then,|
w: ev- ’ry doubt and fear?|Make the con- se- cra- tion,|trust in God, and then,|
w: sanc- ti- fy the whole?|Make the con- se- cra- tion,|trust in God, and then,|
w: those that Christ would save?|Make the con- se- cra- tion,|trust in God, and then,|
 [EG]3 [EG] [EG][EG][FA][FB] | (E2 F2 E2) z2 ||"^Refrain" [Fc]3 [Fc] [Fc][Fc][Fc][FA] | %9
w: Let the Ho- ly Ghost come|in. * *||
w: Let the Ho- ly Ghost come|in. * *|the Ho- ly Ghost come in,|
w: Let the Ho- ly Ghost come|in. * *||
w: Let the Ho- ly Ghost come|in. * *||
 (E2 E2 E2) z2 | [GB]3 [GB] [GB][GB][Fd][Fd] | (E2 F2 E2) z2 | [CE]>[DF] [EG]>[FA] [EG]2 [Ec]2 | %13
w: ||||
w: Let * *|Ho- ly Ghost come in, Make|the * *|se- cra- tion, trust in God,|
w: ||||
w: ||||
 [Ec]>[Fd] [Ge]>[Ec] [FA]4 | [EG]3 [EG] [EG][EG][FA][FB] | (E2 F2 E2) z2 |] %16
w: |||
w: and then, Let the Ho-|ly Ghost come in. * *||
w: |||
w: |||
V:2
 x8 | x8 | x8 | x8 | x8 | x8 | x8 | c6 x2 || x8 | G6 x2 | x8 | c6 x2 | x8 | x8 | x8 | c6 x2 |] %16
w: ||||||||||||||||
w: |||||||Let||the||con-|||||
V:3
 [C,G,]>[C,G,] [C,C]>[C,C] [C,C]2 [C,G,]2 | [F,A,]>[F,A,] [F,A,]>[F,A,] [F,C]4 | %2
w: ~ ~ ~ ~ ~ ~|~ ~ ~ ~ ~|
 G,>G, G,>G, G,2 [G,B,]2 | [C,C]>[C,C] [C,C]>[C,C] [C,G,]4 | %4
w: ~ ~ ~ ~ ~ ~|~ ~ ~ ~ ~|
 [C,G,]>[C,G,] [C,C]>[C,C] [C,C]2 [C,G,]2 | [C,G,]>[C,G,] [C,C]>[C,C] [F,C]4 | %6
w: ~ ~ ~ ~ ~ ~|~ ~ ~ ~ ~|
 [G,C]3 [G,C] [G,C][G,C][G,B,][G,D] | C2 A,2 G,2 z2 || [F,A,]3 [F,A,] [F,A,][F,A,][F,A,][F,C] | %9
w: ~ ~ come in, ~ ~|~ ~ ~|~ come in, ~ ~ ~|
 [C,C]2 [C,C]2 [C,C]2 z2 | [G,D]3 [G,D] [G,D][G,D][G,B,][G,B,] | [C,C]2 [C,A,]2 [C,G,]2 z2 | %12
w: ~ ~ ~|~ come in, * * *||
 [C,G,]>[C,G,] [C,C]>[C,C] [C,C]2 [C,G,]2 | [C,G,]>[C,G,] [C,C]>[C,C] [F,C]4 | %14
w: ||
 [G,C]3 [G,C] [G,C][G,C][G,B,][G,D] | (C2 A,2 G,2) z2 |] %16
w: ||
V:4
 x8 | x8 | G,>G, G,>G, G,2 x2 | x8 | x8 | x8 | x8 | C,6 x2 || x8 | x8 | x8 | x8 | x8 | x8 | x8 | %15
w: ||~ ~ ~ ~ ~|||||~||||||||
 C,6 x2 |] %16
w: |

